X:126
T:Highland Plaid,The. RHu.126
S:R.Hughes MS,1823,Whitchurch,Shrops.
A:Whitchurch, Shropshire
Z:Tony Weatherall 2006
M:C
L:1/8
Q:1/2=75
R:Strathspey
K:C
e/f/|g<cg>e g<cg>e|g<cg>e adde/f/|g<cg>e g<cg>e|fagf ecc:|!
|:e|G>cE>c G>ce>c|G>cF>e d>DD>c|G>cF>c G>ce>c|f>ag>f e>cc>e|!
G>cE>c G>ce>c|G>cE>e dDDf/g/|a>fg>e f>de>c|f<ag>f ecc|]

